X: 11549
T: Edenderry, The
R: reel
M: 4/4
K: Dmajor
e|:f3d e2dB|AFF/E/F EDB,D|A,3B, DEFG|ABdf edBA|
f3d e2dB|AFF/E/F EDB,D|A,3B, DEFG|1 ABdf e2de:|2 ABdf e2d2||
|:faa/^g/a bgaf|dfaf edBA|f3d e2dB|ABdf eBB/^A/B|
faa/^g/a bgaf|dfaf edBA|f3d e2dB|1 ABdf e2d2:|2 ABdf e2de||

